X: 094
T: Southampton Room
B: 204 Favourite Country Dances
N: Published by Straight & Skillern, London ca.1775
F: http://imslp.org/wiki/204_Favourite_Country_Dances_(Various) p.47 #94
Z: 2014 John Chambers <jc:trillian.mit.edu>
N: The 2nd strain has initial repeat but no final repeat; not fixed.
M: 6/8
L: 1/8
K: Bb
% - - - - - - - - - - - - - - - - - - - - - - - - -
f |\
fgf efe | ded cdc | Bcd ecA | BFD B,2f |\
fgf efe | ded cdc | Bcd ecA | B3- B2 :|
|: c |\
fcc dBB | Acc c3c | fcc dBB | Acc c2a |\
gag fgf | =efe ded | cdc BAG | F3- F2 :|
% - - - - - - - - - - - - - - - - - - - - - - - - -
%%begintext align
%% Cast off 1 Cu. hands 4 round at bottom, cast up
%% hands 4 at top, cross over 1 Cu. lead up & cast off,
%% hands 4 round at bottom Right & Left at top.
%%endtext

%%sep 1 1 500
%%sep 1 1 500
